src/gen3-ui-component/images/icons/clinical.svg

<?xml version="1.0" encoding="UTF-8"?>
<svg width="12px" height="12px" viewBox="0 0 12 12" version="1.1" xmlns="http://www.w3.org/2000/svg" xmlns:xlink="http://www.w3.org/1999/xlink">
    <!-- Generator: Sketch 52.3 (67297) - http://www.bohemiancoding.com/sketch -->
    <title>clinical</title>
    <desc>Created with Sketch.</desc>
    <g id="Page-1" stroke="none" stroke-width="1" fill="none" fill-rule="evenodd">
        <g id="clinical" fill="#FFFFFF">
            <path d="M1.45055698,4.05299009 L4.05984005,4.05299009 L4.05984005,1.45009286 C4.05984005,1.09128261 4.35036275,0.8 4.70906027,0.8 L7.3059412,0.8 C7.6640446,0.8 7.954493,1.09120832 7.954493,1.45009286 L7.954493,4.05239578 L10.5501114,4.05239578 C10.9094773,4.05239578 11.2,4.3430098 11.2,4.70248864 L11.2,7.3034544 C11.2,7.6636018 10.9094773,7.9548101 10.5501114,7.9548101 L7.954493,7.9548101 L7.954493,10.5499071 C7.954493,10.909386 7.6639703,11.2 7.3059412,11.2 L4.70906027,11.2 C4.35036275,11.2 4.05984005,10.909386 4.05984005,10.5499071 L4.05984005,7.9548101 L1.45055698,7.9548101 C1.09119109,7.9548101 0.8,7.6636018 0.8,7.3034544 L0.8,4.70248864 C0.8,4.3436041 1.09119109,4.05299009 1.45055698,4.05299009 Z" id="Shape"></path>
        </g>
    </g>
</svg>

<svg width="12" height="12" xmlns="http://www.w3.org/2000/svg"><path d="M1.45 4.053h2.61V1.45c0-.359.29-.65.65-.65h2.596a.65.65 0 0 1 .648.65v2.602h2.596c.36 0 .65.291.65.65v2.601a.65.65 0 0 1-.65.652H7.954v2.595c0 .36-.29.65-.648.65H4.709a.65.65 0 0 1-.65-.65V7.955H1.452A.65.65 0 0 1 .8 7.303v-2.6a.65.65 0 0 1 .65-.65Z" fill="#FFF" fill-rule="evenodd"/></svg>
